packages/icons/svg/Fill/radio.svg

<svg width="24" height="24" viewBox="0 0 24 24" fill="none" xmlns="http://www.w3.org/2000/svg">
<g id="Icon/Fill/radio">
<path id="Mask" fill-rule="evenodd" clip-rule="evenodd" d="M3.5 11.0002C3.5 9.05921 4.438 7.20021 6.144 5.76621C6.566 5.40921 6.621 4.77821 6.266 4.35621C5.909 3.93421 5.279 3.87921 4.856 4.23421C2.692 6.05621 1.5 8.45921 1.5 11.0002C1.5 13.5412 2.692 15.9442 4.856 17.7662C5.044 17.9232 5.272 18.0002 5.499 18.0002C5.784 18.0002 6.067 17.8792 6.266 17.6442C6.621 17.2222 6.566 16.5912 6.144 16.2342C4.438 14.8002 3.5 12.9412 3.5 11.0002ZM12 8.00021C10.346 8.00021 9 9.34621 9 11.0002C9 12.3142 9.855 13.4222 11.035 13.8262C11.0311 13.8472 11.0255 13.8674 11.02 13.8876L11.02 13.8876L11.02 13.8876L11.02 13.8877C11.0099 13.9241 11 13.9603 11 14.0002V20.0002C11 20.5532 11.447 21.0002 12 21.0002C12.553 21.0002 13 20.5532 13 20.0002V14.0002C13 13.9603 12.9901 13.9241 12.98 13.8877L12.98 13.8876L12.98 13.8876L12.98 13.8876C12.9745 13.8674 12.9689 13.8472 12.965 13.8262C14.145 13.4222 15 12.3142 15 11.0002C15 9.34621 13.654 8.00021 12 8.00021ZM15.2356 6.35661C15.5896 5.93461 16.2206 5.87861 16.6436 6.23561C18.1636 7.51361 18.9996 9.20661 18.9996 11.0006C18.9996 12.7946 18.1636 14.4866 16.6436 15.7646C16.4566 15.9236 16.2276 16.0006 16.0006 16.0006C15.7156 16.0006 15.4326 15.8796 15.2356 15.6436C14.8786 15.2216 14.9336 14.5906 15.3566 14.2356C16.4156 13.3426 16.9996 12.1936 16.9996 11.0006C16.9996 9.80661 16.4156 8.65761 15.3566 7.76461C14.9336 7.40961 14.8786 6.77861 15.2356 6.35661ZM8.7646 6.35671C8.4106 5.93371 7.7806 5.87771 7.3566 6.23571C5.8366 7.51371 4.9996 9.20671 4.9996 11.0007C4.9996 12.7937 5.8366 14.4867 7.3566 15.7647C7.5436 15.9227 7.7726 16.0007 7.9986 16.0007C8.2846 16.0007 8.5676 15.8787 8.7646 15.6437C9.1206 15.2217 9.0666 14.5907 8.6436 14.2357C7.5836 13.3427 6.9996 12.1937 6.9996 11.0007C6.9996 9.80671 7.5836 8.65771 8.6436 7.76471C9.0666 7.40971 9.1206 6.77871 8.7646 6.35671ZM17.7346 4.35661C18.0906 3.93461 18.7196 3.88061 19.1436 4.23461C21.3076 6.05561 22.4996 8.45961 22.4996 11.0006C22.4996 13.5416 21.3076 15.9446 19.1436 17.7656C18.9566 17.9226 18.7276 18.0006 18.5006 18.0006C18.2156 18.0006 17.9326 17.8796 17.7346 17.6436C17.3786 17.2216 17.4336 16.5906 17.8566 16.2346C19.5616 14.7996 20.4996 12.9416 20.4996 11.0006C20.4996 9.05861 19.5616 7.20061 17.8566 5.76561C17.4336 5.40961 17.3786 4.77861 17.7346 4.35661Z" fill="#000000"/>
</g>
</svg>

<svg fill="none" height="24" viewBox="0 0 24 24" width="24" xmlns="http://www.w3.org/2000/svg"><path clip-rule="evenodd" d="m3.5 11.0001c0-1.94095.938-3.79995 2.644-5.23395.422-.357.477-.988.122-1.41-.357-.422-.987-.477-1.41-.122-2.164 1.822-3.356 4.225-3.356 6.76595 0 2.541 1.192 4.944 3.356 6.766.188.157.416.234.643.234.285 0 .568-.121.767-.356.355-.422.3-1.053-.122-1.41-1.706-1.434-2.644-3.293-2.644-5.234zm8.5-3.00002c-1.654 0-3 1.346-3 3.00002 0 1.314.855 2.422 2.035 2.826-.0039.021-.0095.0412-.015.0614-.0101.0365-.02.0727-.02.1126v6c0 .553.447 1 1 1s1-.447 1-1v-6c0-.0399-.0099-.0761-.02-.1126-.0055-.0202-.0111-.0404-.015-.0614 1.18-.404 2.035-1.512 2.035-2.826 0-1.65402-1.346-3.00002-3-3.00002zm3.2356-1.64347c.354-.422.985-.478 1.408-.121 1.52 1.278 2.356 2.971 2.356 4.76499 0 1.794-.836 3.486-2.356 4.764-.187.159-.416.236-.643.236-.285 0-.568-.121-.765-.357-.357-.422-.302-1.053.121-1.408 1.059-.893 1.643-2.042 1.643-3.235 0-1.19399-.584-2.34299-1.643-3.23599-.423-.355-.478-.986-.121-1.408zm-6.471-.00009c-.354-.423-.984-.479-1.408-.121-1.52 1.278-2.357 2.971-2.357 4.76498 0 1.793.837 3.486 2.357 4.764.187.158.416.236.642.236.286 0 .569-.122.766-.357.356-.422.302-1.053-.121-1.408-1.06-.893-1.644-2.042-1.644-3.235 0-1.19398.584-2.34298 1.644-3.23598.423-.355.477-.986.121-1.408zm8.97-1.99997c.356-.422.985-.476 1.409-.122 2.164 1.821 3.356 4.225 3.356 6.76595 0 2.541-1.192 4.944-3.356 6.765-.187.157-.416.235-.643.235-.285 0-.568-.121-.766-.357-.356-.422-.301-1.053.122-1.409 1.705-1.435 2.643-3.293 2.643-5.234 0-1.94195-.938-3.79995-2.643-5.23495-.423-.356-.478-.987-.122-1.409z" fill="#6b7280" fill-rule="evenodd"/></svg>
